X:14402
T:Maple Leaf Forever
H: 
C:Alexander Muir(1867)
B: 
O:Kevin Fraser
Z:Kevin Fraser
Q:1/4=90
K:HP
M:4/4
L:1/8
R:March
U: R = ///
U: r = //
U: V = !accent!
V:M gstem=up stem=down name="Melody"
V:H gstem=up stem=down name="Harmony"
V:C gstem=up stem=down name="C-Harmony"
V:S gstem=up stem=down dyn=up stafflines=1 clef=perc middle=G name="Snare" sname="Snare"
V:B gstem=up stem=down clef=none dyn=up name="Bass"
V:T gstem=up stem=down clef=none dyn=up name="Tenor"V:BB gstem=up stem=down name="Brass Bass" sname="ABCD-C" transpose=-1  octave=-1 clef=bass
V:BC gstem=up stem=down name="Brass Chord" sname="ABCD-D" transpose=-1
V:BD gstem=up stem=down name="Brass Chord 2" sname="ABCD-B" transpose=-1
V:P gstem=up stem=down name="Piano" octave=-1
I:MIDI=program 110
%%score {M S}
% %landscape off
%%landscape 
V:M gstem=up stem=down name="Melody"
[V:M][| A2    | {gBd}B2 {e}A2 {g}f3d         | {gBd}B2 {Gdc}d2 {g}A4          | {g}c3d         {gef}e2 d2    | {gcd}c2 {e}B2 {g}A2 {GAG}A2| $
w:      en    | hoto      un   che a         |   hoto      tra hen            |  hoto a         hete a       |  hoto un  hen rarin
[V:M]           {gBd}B2 {e}A2 {Gdc}d2 {gdG}d2| {gfg}f2       d2 {gBd}B2 {g}cd | {gef}e2  d2    {gcd}c2 {e}B2 | {g}A4   {GAG}A2            |] $ 
w:                  hoto un   tra     hadoa  |  chete       a     hoto ho a   | hete     a       hoto   uo   | hen   rarin
[V:M]|: {d}A2 | {gBd}B2 {e}A2 {Gdc}d3A       | {gBd}B2 {Gdc}d2  {e}A3   {G}A  | {g}B2   {G}B2  {gf}g3f       | {gfg}fe3 {A}e2 A2|   $
w:       den  |  hoto   un        tra  en    | hoto       tra    un     den   |  ho       do    vili ve      | chete e    ende en
[V:M]           {ag}a2  f2    {Gdc}d3c       | {gBd}B2 {Gdc}d2  {e}A3   {G}A  | {g}B2   {gf}g2 {fg}f3e       | {gef}ed3 {gdc}d2 :| $
w:                 chili ve   tra  o         | hoto      tra     un    dun    |  ho      vili   chete e      | hete a   hadoa
[V:S][|z{AA}c | {c}A"^9"(rc c)(rc c){c}A (rcc) | {c}A(rc c)(rc c){c}A (rcc) | {c}A(rc c)(rc c){c}A (rcc) | {c}A2 "^13"(rc2 c2) z2 |
[V:S]         | {c}A    (rc c)(rc c){c}A (rcc) | {c}A(rc c)(rc c){c}A (rcc) | {c}A(rc c)(rc c){c}A (rcc) | {c}A2      (rc2 c2)  |]
[V:S] |:  z2  | {c}A    (rc c)(rc c){c}A (rcc) | {c}A(rc c)(rc c){c}A (rcc) | {c}A(rc c)(rc c){c}A (rcc) | {c}A2      (rc2 c2) cA |
[V:S]         | {c}A    (rc c)(rc c){c}A (rcc) | {c}A(rc c)(rc c){c}A (rcc) | {c}A(rc c)(rc c){c}A (rcc) | {c}A2      (rc2 c2) :| 
[V:B][| z2    |  !>!cA cA !>!cA cA | !>!cA cA !>!cA cA | !>!cA cA !>!cA cA | !>!c2 A2 c2    z2  | 
[V:B]     |  !>!c2 A2 c2    A2 | !>!c2 A2  c2   A2 | !>!c2 A2 c2    A2 | !>!c2 A2 c2     |] 
[V:B][|: z2| !>!cA cA !>!cA cA | !>!cA cA !>!cA cA | !>!cA cA !>!cA cA | !>!cA cA !>!cA cA  |
[V:B]     |  !>!c2 A2 c2    A2 | !>!c2 A2  c2   A2 | !>!c2 A2 c2    A2 | !>!c2 A2 c2     :| 
W:In Days of yore,
W:From Britain's shore
W:Wolfe the dauntless hero came
W:And planted firm Britannia's flag
W:On Canada's fair domain.
W:Here may it wave,
W:Our boast, our pride
W:And joined in love together,
W:The thistle, shamrock, rose entwined,
W:The Maple Leaf Forever.
W:
W:The Maple Leaf
W:Our Emblem Dear,
W:The Maple Leaf Forever.
W:God save our Queen and heaven bless,
W:The Maple Leaf Forever.
W:At Queenston Heights and Lundy's Lane
W:Our brave fathers side by side
W:For freedom's home and loved ones dear,
W:Firmly stood and nobly died.
W:And so their rights which they maintained,
W:We swear to yield them never.
W:Our watchword ever more shall be
W:The Maple Leaf Forever
W:
W:Our fair Dominion now extends
W:From Cape Race to Nootka Sound
W:May peace forever be our lot
W:And plenty a store abound
W:And may those ties of love be ours
W:Which discord cannot sever
W:And flourish green for freedom's home
W:The Maple Leaf Forever





